X: 175
T: Champion Jig
T: Jig, F
L: 1/16
M: 6/8
K: F
|: c6 B6| A2c2f2 a2f2c2| B2A2B2 g2e2c2| f2a2g2 f2e2d2| \
c6 B6| A2c2f2 a2f2c2| B2A2B2 g2e2c2| f2a2g2 f4A2:| 
|: A2d2e2 f2e2d2| a2d2e2 f2e2d2| e2c2A2 e2c2A2| g2f2a2 g2e2c2| \
d4e2 f2e2d2| a2d2e2 f2e2d2| a2b2a2 g2f2e2| [1 f2d2d2 d4A2:| [2 f2a2g2 f2e2d2|]
D: Kinnon and Betty Beaton, Saturday Night Lively, KB20M98
